skip-forward-outline.svg

<svg fill="currentColor" viewBox="0 0 24 24"><path d="M6 9.83 8.17 12 6 14.17zM4 5v14l7-7m9-7h-2v14h2m-7-9.17L15.17 12 13 14.17zM11 5v14l7-7"/></svg>

<svg  viewBox="0 0 24 24" fill="currentColor"><path  d="M6,9.83L8.17,12L6,14.17V9.83M4,5V19L11,12M20,5H18V19H20M13,9.83L15.17,12L13,14.17V9.83M11,5V19L18,12"/></svg>
